flaticon/pins-and-locations/pin-9.svg

<svg xmlns="http://www.w3.org/2000/svg" width="32" height="32" viewBox="0 0 24 24">
    <path d="M 18.398438 6.398438 C 18.398438 2.878906 15.519531 0 12 0 C 8.480469 0 5.601562 2.878906 5.601562 6.398438 C 5.601562 9.242188 7.480469 11.667969 10.058594 12.496094 L 10.800781 22.839844 C 10.839844 23.519531 11.359375 24 12 24 C 12.640625 24 13.160156 23.519531 13.199219 22.839844 L 13.980469 12.484375 C 16.539062 11.644531 18.398438 9.230469 18.398438 6.398438 Z M 12.398438 22.761719 C 12.398438 23 12.238281 23.199219 12 23.199219 C 11.761719 23.199219 11.601562 22.960938 11.601562 22.761719 L 10.878906 12.71875 C 11.34375 12.796875 11.835938 12.824219 12.324219 12.792969 C 12.59375 12.777344 12.859375 12.746094 13.117188 12.703125 Z M 12 12 C 8.921875 12 6.398438 9.480469 6.398438 6.398438 C 6.398438 3.320312 8.921875 0.800781 12 0.800781 C 15.078125 0.800781 17.601562 3.320312 17.601562 6.398438 C 17.601562 9.480469 15.078125 12 12 12 Z M 12 12"/>
    <path d="M 15.601562 5.28125 C 15.480469 5.238281 15.398438 5.160156 15.359375 5.039062 C 15.320312 4.921875 15.320312 4.800781 15.359375 4.679688 C 15.601562 4.199219 15.480469 3.640625 15.121094 3.28125 C 14.761719 2.921875 14.199219 2.800781 13.71875 3.039062 C 13.601562 3.078125 13.480469 3.078125 13.359375 3.039062 C 13.238281 3 13.160156 2.921875 13.121094 2.800781 C 12.960938 2.320312 12.480469 2 11.960938 2 C 11.441406 2 10.960938 2.320312 10.800781 2.800781 C 10.761719 2.921875 10.679688 3.039062 10.558594 3.078125 C 10.441406 3.121094 10.320312 3.121094 10.199219 3.078125 C 9.71875 2.839844 9.160156 2.960938 8.800781 3.320312 C 8.441406 3.679688 8.320312 4.238281 8.601562 4.71875 C 8.640625 4.839844 8.640625 4.960938 8.601562 5.078125 C 8.519531 5.199219 8.441406 5.28125 8.320312 5.320312 C 7.878906 5.480469 7.601562 5.878906 7.601562 6.398438 C 7.558594 6.921875 7.839844 7.398438 8.28125 7.601562 L 8.320312 7.601562 C 8.441406 7.640625 8.519531 7.71875 8.558594 7.839844 C 8.601562 7.960938 8.601562 8.078125 8.558594 8.199219 C 8.320312 8.679688 8.441406 9.238281 8.800781 9.601562 C 9.160156 9.960938 9.71875 10.039062 10.199219 9.839844 C 10.320312 9.800781 10.441406 9.800781 10.558594 9.839844 C 10.640625 9.878906 10.761719 9.960938 10.800781 10.121094 C 11 10.519531 11.441406 10.800781 11.960938 10.800781 C 12.480469 10.800781 12.921875 10.519531 13.121094 10.078125 C 13.160156 9.960938 13.238281 9.878906 13.359375 9.839844 C 13.480469 9.800781 13.601562 9.800781 13.71875 9.839844 C 14.199219 10.078125 14.761719 9.960938 15.121094 9.601562 C 15.480469 9.238281 15.601562 8.679688 15.359375 8.199219 C 15.320312 8.078125 15.320312 7.960938 15.359375 7.839844 C 15.398438 7.71875 15.480469 7.640625 15.601562 7.601562 C 16.078125 7.441406 16.398438 6.960938 16.398438 6.441406 C 16.398438 5.921875 16.078125 5.441406 15.601562 5.28125 Z M 15.320312 6.921875 C 15 7.039062 14.71875 7.28125 14.601562 7.601562 C 14.480469 7.921875 14.480469 8.28125 14.640625 8.601562 C 14.761719 8.839844 14.601562 9.039062 14.558594 9.078125 C 14.519531 9.121094 14.320312 9.28125 14.078125 9.160156 C 13.761719 9 13.398438 9 13.078125 9.121094 C 12.761719 9.238281 12.519531 9.480469 12.398438 9.800781 C 12.320312 9.960938 12.160156 10 12 10 C 11.839844 10 11.640625 9.921875 11.558594 9.800781 C 11.441406 9.480469 11.199219 9.199219 10.878906 9.078125 C 10.71875 9.039062 10.558594 9 10.398438 9 C 10.199219 9 10.039062 9.039062 9.800781 9.078125 C 9.558594 9.199219 9.359375 9.039062 9.320312 9 C 9.28125 8.960938 9.121094 8.761719 9.238281 8.519531 C 9.398438 8.199219 9.398438 7.839844 9.28125 7.519531 C 9.160156 7.199219 8.921875 6.960938 8.601562 6.839844 C 8.441406 6.761719 8.398438 6.558594 8.398438 6.398438 C 8.398438 6.28125 8.480469 6.078125 8.601562 6.039062 C 8.921875 5.921875 9.199219 5.679688 9.320312 5.359375 C 9.441406 5.039062 9.441406 4.679688 9.28125 4.359375 C 9.160156 4.121094 9.320312 3.921875 9.359375 3.878906 C 9.441406 3.800781 9.601562 3.679688 9.878906 3.761719 C 10.199219 3.921875 10.558594 3.921875 10.878906 3.800781 C 11.199219 3.679688 11.441406 3.398438 11.558594 3.078125 C 11.640625 2.839844 11.878906 2.800781 11.960938 2.800781 C 12.039062 2.800781 12.28125 2.800781 12.398438 3.199219 C 12.519531 3.519531 12.761719 3.800781 13.078125 3.921875 C 13.398438 4.039062 13.761719 4.039062 14.078125 3.878906 C 14.320312 3.761719 14.519531 3.921875 14.558594 3.960938 C 14.601562 4 14.761719 4.199219 14.640625 4.441406 C 14.480469 4.761719 14.480469 5.121094 14.601562 5.441406 C 14.71875 5.761719 15 6 15.320312 6.121094 C 15.558594 6.199219 15.601562 6.441406 15.601562 6.519531 C 15.601562 6.601562 15.601562 6.839844 15.320312 6.921875 Z M 15.320312 6.921875"/>
    <path d="M 12 4.800781 C 11.121094 4.800781 10.398438 5.519531 10.398438 6.398438 C 10.398438 7.28125 11.121094 8 12 8 C 12.878906 8 13.601562 7.28125 13.601562 6.398438 C 13.601562 5.519531 12.878906 4.800781 12 4.800781 Z M 12 7.199219 C 11.558594 7.199219 11.199219 6.839844 11.199219 6.398438 C 11.199219 5.960938 11.558594 5.601562 12 5.601562 C 12.441406 5.601562 12.800781 5.960938 12.800781 6.398438 C 12.800781 6.839844 12.441406 7.199219 12 7.199219 Z M 12 7.199219"/>
</svg>

<svg xmlns="http://www.w3.org/2000/svg" width="32" height="32" viewBox="0 0 24 24">
    <path d="M18.398 6.398C18.398 2.878 15.52 0 12 0 8.48 0 5.602 2.879 5.602 6.398c0 2.844 1.878 5.27 4.457 6.098L10.8 22.84c.039.68.558 1.16 1.199 1.16.64 0 1.16-.48 1.2-1.16l.78-10.356c2.56-.84 4.418-3.254 4.418-6.086zm-6 16.364c0 .238-.16.437-.398.437-.238 0-.398-.238-.398-.437l-.723-10.043c.465.078.957.105 1.445.074.27-.016.535-.047.793-.09zM12 12c-3.078 0-5.602-2.52-5.602-5.602C6.398 3.32 8.922.801 12 .801c3.078 0 5.602 2.52 5.602 5.597C17.602 9.48 15.078 12 12 12zm0 0"/>
    <path d="M15.602 5.281a.367.367 0 0 1-.243-.242.566.566 0 0 1 0-.36c.243-.48.121-1.038-.238-1.398-.36-.36-.922-.48-1.402-.242a.566.566 0 0 1-.36 0 .348.348 0 0 1-.238-.238c-.16-.48-.64-.801-1.16-.801-.52 0-1 .32-1.16.8-.04.122-.121.24-.242.278a.517.517 0 0 1-.36 0 1.216 1.216 0 0 0-1.398.242c-.36.36-.48.918-.2 1.399.04.12.04.242 0 .36-.081.12-.16.202-.28.241-.442.16-.72.559-.72 1.078-.042.524.239 1 .68 1.204h.04c.12.039.199.117.238.238a.517.517 0 0 1 0 .36c-.239.48-.118 1.038.242 1.402.36.359.918.437 1.398.238a.566.566 0 0 1 .36 0c.082.039.203.12.242.281.199.399.64.68 1.16.68.52 0 .96-.281 1.16-.723.04-.117.117-.2.238-.238a.566.566 0 0 1 .36 0 1.22 1.22 0 0 0 1.402-.238c.36-.364.48-.922.238-1.403a.566.566 0 0 1 0-.36c.04-.12.121-.198.243-.237.476-.16.796-.641.796-1.16 0-.52-.32-1-.796-1.16zm-.282 1.64c-.32.118-.601.36-.718.68-.122.32-.122.68.039 1 .12.239-.04.438-.082.477-.04.043-.239.203-.48.082a1.24 1.24 0 0 0-1-.039c-.317.117-.56.36-.68.68-.079.16-.239.199-.399.199-.16 0-.36-.078-.441-.2-.118-.32-.36-.6-.68-.722-.16-.039-.32-.078-.48-.078-.2 0-.36.04-.598.078-.242.121-.442-.039-.48-.078-.04-.04-.2-.238-.083-.48.16-.32.16-.68.043-1a1.146 1.146 0 0 0-.68-.68c-.16-.078-.203-.281-.203-.442 0-.117.082-.32.204-.359.32-.117.597-.36.718-.68a1.24 1.24 0 0 0-.039-1c-.12-.238.04-.437.078-.48a.493.493 0 0 1 .52-.117c.32.16.68.16 1 .039.32-.121.562-.403.68-.723.082-.238.32-.277.402-.277.078 0 .32 0 .437.398.122.32.364.602.68.723.32.117.684.117 1-.043.242-.117.442.043.48.082.044.039.204.238.083.48-.16.32-.16.68-.04 1 .118.32.399.559.72.68.238.078.28.32.28.399 0 .082 0 .32-.28.402zm0 0"/>
    <path d="M12 4.8c-.879 0-1.602.72-1.602 1.598C10.398 7.281 11.121 8 12 8c.879 0 1.602-.719 1.602-1.602 0-.878-.723-1.597-1.602-1.597zm0 2.4c-.441 0-.8-.36-.8-.802a.801.801 0 0 1 1.6 0c0 .442-.359.801-.8.801zm0 0"/>
</svg>
